icons/1_Primary/Libero.svg

<svg width="1024" height="1024" viewBox="0 0 1024 1024" fill="none" xmlns="http://www.w3.org/2000/svg">
<g clip-path="url(#clip0_2_2667)">
<path d="M512 1024C794.77 1024 1024 794.77 1024 512C1024 229.23 794.77 0 512 0C229.23 0 0 229.23 0 512C0 794.77 229.23 1024 512 1024Z" fill="#98DC9A"/>
<path d="M279.421 581.63V572.48C279.454 572.205 279.433 571.926 279.358 571.659C279.282 571.392 279.155 571.142 278.983 570.924C278.811 570.707 278.598 570.526 278.355 570.391C278.113 570.256 277.846 570.171 277.571 570.14H239.271C218.401 570.14 215.081 564.62 215.081 549.67V442.58C215.075 442.061 214.968 441.548 214.764 441.071C214.559 440.593 214.263 440.161 213.891 439.799C213.52 439.436 213.08 439.151 212.598 438.959C212.115 438.767 211.6 438.672 211.081 438.68H201.081C200.043 438.68 199.046 439.09 198.309 439.82C197.571 440.55 197.151 441.542 197.141 442.58V549.66C197.141 582.12 218.011 586.27 239.061 586.27C251.878 586.437 264.693 585.846 277.441 584.5C278.029 584.323 278.543 583.959 278.904 583.462C279.265 582.965 279.454 582.364 279.441 581.75L279.421 581.63ZM320.211 580.84V442.28C320.26 441.343 319.934 440.424 319.306 439.726C318.678 439.029 317.798 438.609 316.861 438.56H305.861C304.923 438.56 304.025 438.932 303.361 439.593C302.697 440.255 302.323 441.153 302.321 442.09V580.84C302.269 581.832 302.612 582.803 303.276 583.542C303.94 584.281 304.869 584.726 305.861 584.78H316.691C317.682 584.726 318.612 584.281 319.275 583.542C319.939 582.803 320.282 581.832 320.231 580.84H320.211ZM445.211 544.51V541.18C445.481 534.231 443.498 527.381 439.557 521.652C435.615 515.923 429.927 511.622 423.341 509.39C429.688 507.136 435.149 502.912 438.926 497.335C442.704 491.759 444.601 485.121 444.341 478.39V475.34C444.341 445.54 417.981 437.27 386.681 437.27C376.226 437.233 365.777 437.763 355.381 438.86C354.469 438.865 353.569 439.065 352.741 439.448C351.913 439.83 351.177 440.385 350.582 441.076C349.987 441.767 349.546 442.577 349.291 443.452C349.035 444.328 348.971 445.248 349.101 446.15V577.33C349.101 582.24 351.101 584.01 355.601 584.62C366.233 585.951 376.946 586.542 387.661 586.39C418.381 586.39 445.131 577.73 445.131 544.75L445.211 544.51ZM426.341 478.4C426.341 490.85 420.241 501.92 397.421 501.92H367.091V452.92C372.611 452.74 379.901 452.34 386.581 452.34C410.581 452.34 426.241 456.34 426.241 475.25V478.3L426.341 478.4ZM427.131 544.51C427.131 565.71 411.881 570.99 387.471 570.99C380.581 570.99 373.471 570.41 367.001 570.2V516.3H397.321C420.541 516.3 427.031 528.3 427.031 541.19V544.52L427.131 544.51ZM552.001 582.39V572.39C552.057 571.827 551.887 571.264 551.529 570.826C551.171 570.387 550.654 570.108 550.091 570.05H511.751C490.911 570.05 487.561 564.53 487.561 549.58V516.47H548.001C549.051 516.47 550.06 516.057 550.808 515.32C551.556 514.583 551.985 513.581 552.001 512.53V505.06C551.985 504.01 551.556 503.008 550.808 502.27C550.06 501.533 549.051 501.12 548.001 501.12H487.601V473.67C487.601 458.72 490.961 453.2 511.791 453.2H549.791C550.095 453.21 550.398 453.155 550.68 453.038C550.962 452.922 551.215 452.746 551.423 452.524C551.632 452.301 551.79 452.037 551.888 451.748C551.986 451.46 552.021 451.153 551.991 450.85V441C552.004 440.386 551.815 439.785 551.454 439.288C551.093 438.792 550.579 438.427 549.991 438.25C541.721 437.46 523.241 437.06 511.611 437.06C484.151 437.06 469.691 447.49 469.691 473.67V549.45C469.691 575.62 484.061 586.06 511.611 586.06C523.231 586.06 542.511 585.85 549.991 585.06C550.584 584.882 551.101 584.513 551.463 584.01C551.825 583.507 552.01 582.899 551.991 582.28L552.001 582.39ZM679.701 582.21C679.688 581.571 679.474 580.952 679.091 580.44L643.281 520.59C661.191 515.89 674.181 502.9 674.181 480.93V479.56C674.181 447.68 650.181 437.25 619.091 437.25C607.681 437.25 592.921 437.86 584.441 438.84C580.901 439.24 579.711 440.4 579.711 443.17V580.93C579.662 581.923 580.009 582.895 580.677 583.632C581.344 584.369 582.277 584.811 583.271 584.86H593.901C594.892 584.806 595.822 584.361 596.485 583.622C597.149 582.883 597.492 581.912 597.441 580.92V523C607.871 523.4 612.691 523.58 619.101 523.58H624.191L659.421 582.24C659.865 583.178 660.611 583.94 661.539 584.404C662.467 584.868 663.524 585.007 664.541 584.8H677.141C677.469 584.808 677.796 584.751 678.102 584.633C678.408 584.515 678.688 584.337 678.926 584.11C679.164 583.884 679.355 583.613 679.488 583.312C679.62 583.012 679.693 582.688 679.701 582.36C679.701 582.36 679.701 582.28 679.701 582.24V582.21ZM656.471 480.84C656.471 502.19 643.261 508.3 619.071 508.3C614.521 508.3 606.071 508.12 597.411 507.9V453.9C602.141 453.29 612.971 453.29 619.071 453.29C643.661 453.29 656.471 459.79 656.471 479.46V480.84ZM799.671 524.34V499C799.671 455.32 777.431 437.19 746.531 437.19C715.631 437.19 693.201 455.27 693.201 499V524.38C693.201 568.06 715.621 586.19 746.521 586.19C777.421 586.19 799.671 568 799.671 524.34ZM781.581 524.34C781.581 557.41 768.001 570.1 746.531 570.1C725.061 570.1 711.331 557.5 711.331 524.34V499C711.331 465.93 725.091 453.24 746.531 453.24C767.971 453.24 781.581 465.84 781.581 499V524.34ZM821.001 554.42C821.001 547.988 822.908 541.701 826.481 536.353C830.055 531.005 835.133 526.837 841.076 524.375C847.018 521.914 853.557 521.27 859.865 522.525C866.173 523.78 871.968 526.877 876.516 531.425C881.064 535.973 884.161 541.767 885.416 548.076C886.671 554.384 886.027 560.923 883.565 566.865C881.104 572.807 876.936 577.886 871.588 581.459C866.24 585.033 859.952 586.94 853.521 586.94H853.461C844.836 586.94 836.564 583.514 830.466 577.415C824.367 571.316 820.941 563.045 820.941 554.42H821.001Z" fill="white"/>
</g>
<defs>
<clipPath id="clip0_2_2667">
<rect width="1024" height="1024" fill="white"/>
</clipPath>
</defs>
</svg>

<svg xmlns="http://www.w3.org/2000/svg" viewBox="0 0 1024 1024">
   <circle cx="512" cy="512" r="512" style="fill:#83ae30"/>
   <path d="M279.42 581.63v-9.15a2.1 2.1 0 0 0-1.85-2.34h-38.3c-20.87 0-24.19-5.52-24.19-20.47V442.58a3.94 3.94 0 0 0-4-3.9h-10a3.94 3.94 0 0 0-3.94 3.9v107.08c0 32.46 20.87 36.61 41.92 36.61a325.31 325.31 0 0 0 38.38-1.77 2.81 2.81 0 0 0 2-2.75Zm40.79-.79V442.28a3.54 3.54 0 0 0-3.35-3.72h-11a3.54 3.54 0 0 0-3.54 3.53v138.75a3.75 3.75 0 0 0 3.54 3.94h10.83a3.75 3.75 0 0 0 3.54-3.94Zm125-36.33v-3.33a32.24 32.24 0 0 0-21.87-31.79 31.6 31.6 0 0 0 21-31v-3.05c0-29.8-26.36-38.07-57.66-38.07a288.54 288.54 0 0 0-31.3 1.59 6.38 6.38 0 0 0-6.28 7.29v131.18c0 4.91 2 6.68 6.5 7.29a231.61 231.61 0 0 0 32.06 1.77c30.72 0 57.47-8.66 57.47-41.64Zm-18.87-66.11c0 12.45-6.1 23.52-28.92 23.52h-30.33v-49c5.52-.18 12.81-.58 19.49-.58 24 0 39.66 4 39.66 22.91v3.05Zm.79 66.11c0 21.2-15.25 26.48-39.66 26.48-6.89 0-14-.58-20.47-.79v-53.9h30.32c23.22 0 29.71 12 29.71 24.89v3.33ZM552 582.39v-10a2.14 2.14 0 0 0-1.91-2.34h-38.34c-20.84 0-24.19-5.52-24.19-20.47v-33.11H548a4 4 0 0 0 4-3.94v-7.47a4 4 0 0 0-4-3.94h-60.4v-27.45c0-14.95 3.36-20.47 24.19-20.47h38a2.14 2.14 0 0 0 2.2-2.35V441a2.81 2.81 0 0 0-2-2.75c-8.27-.79-26.75-1.19-38.38-1.19-27.46 0-41.92 10.43-41.92 36.61v75.78c0 26.17 14.37 36.61 41.92 36.61 11.62 0 30.9-.21 38.38-1a2.81 2.81 0 0 0 2-2.78Zm127.7-.18a3.05 3.05 0 0 0-.61-1.77l-35.81-59.85c17.91-4.7 30.9-17.69 30.9-39.66v-1.37c0-31.88-24-42.31-55.09-42.31-11.41 0-26.17.61-34.65 1.59-3.54.4-4.73 1.56-4.73 4.33v137.76a3.75 3.75 0 0 0 3.56 3.93h10.63a3.75 3.75 0 0 0 3.54-3.94V523c10.43.4 15.25.58 21.66.58h5.09l35.23 58.66a4.64 4.64 0 0 0 5.12 2.56h12.6a2.5 2.5 0 0 0 2.56-2.44s0-.08 0-.12Zm-23.23-101.37c0 21.35-13.21 27.46-37.4 27.46-4.55 0-13-.18-21.66-.4v-54c4.73-.61 15.56-.61 21.66-.61 24.59 0 37.4 6.5 37.4 26.17Zm143.2 43.5V499c0-43.68-22.24-61.81-53.14-61.81S693.2 455.27 693.2 499v25.38c0 43.68 22.42 61.81 53.32 61.81s53.15-18.19 53.15-61.85Zm-18.09 0c0 33.07-13.58 45.76-35.05 45.76s-35.2-12.6-35.2-45.76V499c0-33.07 13.76-45.76 35.2-45.76s35.05 12.6 35.05 45.76ZM821 554.42a32.52 32.52 0 1 1 32.52 32.52h-.06a32.52 32.52 0 0 1-32.52-32.52h.06Z" style="fill:#fff"/>
</svg>
